!!!COM: Bach, Johann Sebastian
!!!OPR: Joh. Seb. Bachs vierstimmige Choralgesänge
!!!XEN: Four-part Chorales
!!!OTL: 180. Wer Gott vertraut, hat wohl gebaut
!!!SCT: BWV 433
!!!SCA: Thematisch-systematisches Verzeichnis der musikalischen Werke Johann Sebastian Bach: Bach-Werke-Verzeichnis (Schmieder)
!!!YOR: Bach Gesellschaft Edition xxxix
!!!ENC: Steven Rasmussen
!!!CDT: 1685/3//-1750/7/28/
!!!OCY: Deutschland
!!!YEC: Copyright (c) 1994, 2000 Center for Computer Assisted Research in the Humanities
!!!YEM: Rights to all derivative editions reserved
!!!YEN: United States of America
**kern	**silbe	**kern	**silbe	**kern	**silbe	**kern
*I:[SOPRANO]	*I:[SOPRANO]	*I:[ALTO]	*I:[ALTO]	*I:[TENORE]	*I:[TENORE]	*I:[BASSO]
*>[A,A,B]	*	*>[A,A,B]	*	*>[A,A,B]	*	*>[A,A,B]
*>A	*	*>A	*	*>A	*	*>A
*clefG2	*	*clefG2	*	*clefGv2	*	*clefF4
*k[f#]	*	*k[f#]	*	*k[f#]	*	*k[f#]
*G:	*	*G:	*	*G:	*	*G:
*M4/4	*	*M4/4	*	*M4/4	*	*M4/4
=1-	=1-	=1-	=1-	=1-	=1-	=1-
4r	.	4r	.	4r	.	4r
4g	Werwer	4d	.	4B	.	8GL
.	.	.	.	.	.	8F#J
4g	Gottsich	(8e	.	4B	.	4E
.	.	4g)	.	.	.	.
4a	ver-ver-	.	.	4d	.	4D
.	.	8f#	.	.	.	.
=2	=2	=2	=2	=2	=2	=2
2b;	-traut,-lÃ¤sst	2g;	.	2d;	.	2G;
4r	.	4r	.	4r	.	4r
4b	hatauf	4g	.	4d	.	4GG
=3	=3	=3	=3	=3	=3	=3
4cc	wohlJe-	8gL	.	4c	.	4AA
.	.	8f#J	.	.	.	.
4b	ge--sum	4g	.	4d	.	8BBL
.	.	.	.	.	.	8CJ
2a;	-bautChrist,	(4g	.	2d;	.	2D;
.	.	4f#;)	.	.	.	.
=4	=4	=4	=4	=4	=4	=4
4r	.	4r	.	4r	.	4r
4a	imdem	4f#	.	8dL	.	4D
.	.	.	.	8cJ	.	.
4g	Him-muss	(8f#	.	4B	.	4E
.	.	4e)	.	.	.	.
4a	-melder	.	.	4A	.	4F#
.	.	8d	.	.	.	.
=5	=5	=5	=5	=5	=5	=5
4b	undHim-	4d	.	(8A	.	4G
.	.	.	.	4G)	.	.
4a	auf-mel	4d	.	.	.	4D
.	.	.	.	8F#	.	.
2g	Er-wer-	4d	.	8GL	.	2E
.	.	.	.	8B	.	.
.	.	4c#	.	8A	.	.
.	.	.	.	8GJ	.	.
=6	=6	=6	=6	=6	=6	=6
4a;	-den,-den,	4d;	.	4F#;	.	4D;
4a	imdem	4d	.	8dL	.	4F#
.	.	.	.	8cJ	.	.
4b	Him-muss	8dL	.	8BL	.	4G
.	.	8eJ	.	8c#J	.	.
4a	-melder	4f#	.	8dL	.	4D
.	.	.	.	8cnJ	.	.
=7	=7	=7	=7	=7	=7	=7
4g	undHim-	8f#L	.	4B	.	4E
.	.	8eJ	.	.	.	.
4g	auf-mel	8dL	.	8BL	.	8BBL
.	.	8eJ	.	8AJ	.	8CJ
2f#	Er-wer-	2d	.	8AL	.	2D
.	.	.	.	8BJ	.	.
.	.	.	.	4c	.	.
=8	=8	=8	=8	=8	=8	=8
1g;	-den;-den.	1d;	.	1B;	.	1GG;
=9:|!	=9:|!	=9:|!	=9:|!	=9:|!	=9:|!	=9:|!
*>B	*	*>B	*	*>B	*	*>B
4r	.	4r	.	4r	.	4r
4b	Da-	4g	.	4d	.	8GL
.	.	.	.	.	.	8F#J
4cc	-rum	(8g	.	8eL	.	8EL
.	.	4a)	.	8dJ	.	8F#J
4b	auf	.	.	4d	.	4G
.	.	8g	.	.	.	.
=10	=10	=10	=10	=10	=10	=10
2a;	dich	8gL	.	2d;	.	2D;
.	.	16f#L	.	.	.	.
.	.	16eJJ	.	.	.	.
.	.	4f#;	.	.	.	.
4r	.	4r	.	4r	.	4r
4a	all'	4f#	.	4B	.	8D#L
.	.	.	.	.	.	8BBJ
=11	=11	=11	=11	=11	=11	=11
4g	Hoff-	4f#	.	4B	.	8EL
.	.	.	.	.	.	8F#J
4g	-nung	4e	.	4B	.	8GL
.	.	.	.	.	.	8AJ
2f#;	ich	(4e	.	2B;	.	2B;
.	.	4d#;)	.	.	.	.
=12	=12	=12	=12	=12	=12	=12
4r	.	4r	.	4r	.	4r
4f#	ganz	4f#	.	8BL	.	4D#
.	.	.	.	8AJ	.	.
4g	fest	8BL	.	8GL	.	4E
.	.	8eJ	.	8cJ	.	.
4f#	und	4d#	.	8cL	.	4BB
.	.	.	.	8BJ	.	.
=13	=13	=13	=13	=13	=13	=13
4e	steif	4e	.	8BL	.	4C
.	.	.	.	8AJ	.	.
4e	tu'	8BL	.	8GL	.	8GGL
.	.	8cJ	.	8F#J	.	8AAJ
2d#	se-	2B	.	8F#L	.	2BB
.	.	.	.	8GJ	.	.
.	.	.	.	4A	.	.
=14	=14	=14	=14	=14	=14	=14
2e;	-tzen.	2B;	.	2G;	.	2E;
4r	.	4r	.	4r	.	4r
4g	Herr	8BL	.	8GL	.	4E
.	.	8cJ	.	8AJ	.	.
=15	=15	=15	=15	=15	=15	=15
4g	Je-	8dL	.	8BL	.	8BBL
.	.	8eJ	.	8AJ	.	8CJ
4f#	-su	4d	.	16ALL	.	4D
.	.	.	.	16BJ	.	.
.	.	.	.	8cJ	.	.
2g;	Christ,	2d;	.	(4c	.	2GG;
.	.	.	.	4B;)	.	.
=16	=16	=16	=16	=16	=16	=16
4r	.	4r	.	4r	.	4r
4b	mein	4g	.	8dL	.	4G
.	.	.	.	8eJ	.	.
4cc	Trost	4.a	.	8eL	.	8GL
.	.	.	.	8dJ	.	8F#J
4b	du	.	.	4d	.	4G
.	.	8g	.	.	.	.
=17	=17	=17	=17	=17	=17	=17
2a;	bist	(4g	.	2d;	.	2D;
.	.	4f#;)	.	.	.	.
4r	.	4r	.	4r	.	4r
4a	in	4f#	.	4d	.	4C
=18	=18	=18	=18	=18	=18	=18
4g	To-	4g	.	4.d	.	4BB
4a	-des-	4d	.	.	.	4FF#
.	.	.	.	8c	.	.
4b	-not	8dL	.	8BL	.	4GG
.	.	8eJ	.	8cJ	.	.
4a	und	8f#L	.	4d	.	8DL
.	.	8eJ	.	.	.	8CJ
=19	=19	=19	=19	=19	=19	=19
2g	Schmer-	8dL	.	8GL	.	8BBL
.	.	8c	.	8AJ	.	8AAJ
.	.	8d	.	8BL	.	4GG
.	.	8eJ	.	16cL	.	.
.	.	.	.	16BJJ	.	.
4a;	-zen,	4f#;	.	4A;	.	4D;
4a	in	[4a	in	4d	in	4F#
=20	=20	=20	=20	=20	=20	=20
4b	To-	8a]	.	4d	To-	4G
.	.	4g	To-	.	.	.
4a	-des-	.	.	4d	-des-	4D
.	.	4f#	-des-	.	.	.
4g	-not	.	.	4.B	-not	4E
.	.	8eL	-not	.	.	.
4g	und	8dJ	.	.	.	8BBL
.	.	8e	und	8A	.	8CJ
=21	=21	=21	=21	=21	=21	=21
2f#	Schmer-	2d	.	8AL	.	2D
.	.	.	.	8BJ	.	.
.	.	.	.	4c	.	.
2g;	-zen.	2d;	.	2B;	.	2GG;
==|!	==|!	==|!	==|!	==|!	==|!	==|!
*-	*-	*-	*-	*-	*-	*-
!!!RWG: Key is interpreted using the Humdrum key tool.
!!!END: 1994/08/08
!!!EMD: Converted from MuseData to Humdrum Dec 19, 2000, by Andreas Kornstaedt using muse2kern.
!!!EED: Craig Stuart Sapp
!!!EEV: 2024/03/31
!!!ONB: Some non-unicode characters
